packs/brands/mintbit.svg

<svg xmlns="http://www.w3.org/2000/svg" viewBox="0 0 512 512"><!--! Font Awesome Free 6.5.2 by @fontawesome - https://fontawesome.com License - https://fontawesome.com/license/free (Icons: CC BY 4.0, Fonts: SIL OFL 1.1, Code: MIT License) Copyright 2024 Fonticons, Inc.--><path d="M73.2 512v-73.1h292.5v-73.2h73.2V219.4H512V0H292.6v73.1H146.3v73.2H73.2v292.6H0V512zm73.1-219.4h73.2v73.1h-73.2zm73.2-73.1h73.1v73.1h-73.2v-73.2zm73.1 0v-73.2h73.2v73.1h-73.2zm73.1-146.4h73.2v73.2h-73.2z"/></svg>

<svg xmlns="http://www.w3.org/2000/svg" viewBox="0 0 512 512"><!--! Font Awesome Free 6.5.2 by @fontawesome - https://fontawesome.com License - https://fontawesome.com/license/free (Icons: CC BY 4.0, Fonts: SIL OFL 1.1, Code: MIT License) Copyright 2024 Fonticons, Inc. --><path d="M73.2 512V438.9H365.7V365.7h73.2V219.4H512V0H292.6V73.1H146.3v73.2H73.2V438.9H0V512H73.2zm73.1-219.4h73.2v73.1H146.3V292.6zm73.2-73.1h73.1v73.1H219.4V219.4zm73.1 0V146.3h73.2v73.1H292.6zM365.7 73.1h73.2v73.2H365.7V73.1z"/></svg>
